X: 924
T: The Star of the County Down
B: jims roots
B: steve song book
M:6/8
L:1/8
R: jig
Q: 3/8=100
K:Dm
V:1 
Ac "D"|"Dm"d2d dcd | "F"f2f "C"gfg | "Dm"agf d>cA | "C"c3 zfe |
"Dm"d2d dcd | "F"f2f "C"gfg | "Dm"agf "Am"d2c | "Dm"d3 z |]
ab "E1"|"F"c'2a agf | "C"g2g gfg | "Dm"agf d2d | "Am"c3 zfe |
"Dm"d2d dcd | "F"f2f "C"gfg | "Dm"agf "Am"d2c | "Dm"d3 z |]
ab "E2"|"F"c'd'c' c'af | "C"gfg "F"afg | "Dm"agf dcA | "Am"c3 zAc |
"Dm"dfd "(Bb)"dcd | "F"fef "C"gfg | "Dm"agf "Am"d2c | "Dm"d3 z |]
AB "E2"|"F"cdc cAF | "C"GFG "F"AFG | "Dm"AGF DCA, | "Am"C3 zA,C |
"Dm"DFD "(Bb)"DCD | "F"FEF "C"GFG | "Dm"AGF "Am"D2C | "Dm"D3 z |]
W: [Verse 1]
W: Near Banbridge Town in the County Down
W: One morning last July
W: Down a bithrn green came a sweet cailn
W: And she smiled as she passed me by
W: She looked so sweet from her two bare feet
W: To the sheen of her nut-brown hair
W: Such a winsome elf, I'm ashamed of myself
W: For to see I was staring there
W: 
W: [Chorus]
W: From Bantry Bay up to Derry's Quay
W: From Galway to Dublin Town
W: No maid I've seen like the fair cailn
W: That I met in the County Down
W: [Verse 2]
W: As she onward sped, sure I scratched me head
W: And I looked with a feelin' rare
W: And I says, says I, to a passer-by
W: "Who's the maid with the nut-brown hair"?
W: Well, he looked at me and he said to me:
W: "That's the gem of Ireland's crown
W: Young Rosie McCann from the banks of the Bann
W: She's the star of the County Down"
W: 
W: [Chorus]
W: From Bantry Bay up to Derry's Quay
W: From Galway to Dublin Town
W: No maid I've seen like the fair cailn
W: That I met in the County Down
W: 
W: [Verse 3]
W: She'd soft brown eyes with a look so shy
W: And a smile like the rose in June
W: And she sang so sweet what a lovely treat
W: As she lilted an Irish tune
W: At the Lammas dance I was in the trance
W: As she whirled with the lads of the town
W: And it broke me heart just to be apart
W: From the star of the County Down
W: [Chorus]
W: From Bantry Bay up to Derry's Quay
W: From Galway to Dublin Town
W: No maid I've seen like the fair cailn
W: That I met in the County Down
W: 
W: [Verse 4]
W: At the Harvest Fair she'll be surely there
W: So I'll dress in me Sunday clothes
W: With me shoes shone bright and me hat cocked right
W: For a smile from the nut brown rose
W: No pipe I'll smoke, no horse I'll yoke
W: Till my plough is a rust colored brown
W: And a smiling bride by me own fireside
W: Sits the star of the County Down
% abcbook-tune_id 6298c287ce00c77b5a954259


% abcbook-boost 0
% abcbook-tablature 
% abcbook-transpose 
% abcbook-lastupdated 1656426563417
% abcbook-soundfonts 
% abcbook-repeats 1


